X:5
T:Lover's Waltz
C:Armand Aromin
M:3/4
L:1/4
H:3/17/04
K:G
B2 d | A2 c | G2 B | F2 D |
E2 F/2G/2 | D2 D | E>F G | d3 :|
B d2 | c/2B/2c/2B/2 G-| G c2 | B G2 |
D E2 | G D2 | B, E2 | F D2 |
D E2 | F/2G/2 D2 | D C D | E F G |
A B c | d3 | B2 d | A2 c |
G2 B | F2 D | E2 F/2G/2 | D2 D |
G2 B/2A/2 | G3 |
2 comments|post a comment
